X:221
T:Jesse James
Z:Jack Campin, http://www.campin.me.uk/
F:Jack Campin's Nine-Note Tunebook
% last edit 03-02-2013
S:Kenneth S. Clark, Cowboy Songs
M:C
L:1/8
Q:1/2=84
K:G
DG|B2 BA  G2  zD|E2 GE D2 zB|B2 B2 d2 d2|A4 z2
GA|B2 BA  G2  DD|E2 GE D2 GA|B2 cB A2 BA|G6 ||
B2|cc c>c c3   c|B2 BA G2 B2|BB3   d2 d2|A6
DG|BB BA  G G2 D|E2 GE DD G2|B2 cB A2 GF|G6 |]

